images/call_icon.svg

<svg width="13" height="13" viewBox="0 0 13 13" fill="none" xmlns="http://www.w3.org/2000/svg">
<path d="M11.9547 1.97969L10.2906 0.317188C10.0875 0.114063 9.81562 0 9.52812 0C9.24062 0 8.96875 0.1125 8.76562 0.317188L6.97344 2.10625C6.77031 2.30938 6.65625 2.58281 6.65625 2.87031C6.65625 3.15938 6.76875 3.42969 6.97344 3.63438L8.37344 5.03594C8.05451 5.77904 7.59626 6.45421 7.02344 7.025C6.45 7.60156 5.77969 8.05625 5.03594 8.37813L3.63594 6.97656C3.43281 6.77344 3.16094 6.65938 2.87344 6.65938C2.73163 6.65885 2.59114 6.68663 2.46021 6.7411C2.32928 6.79557 2.21054 6.87562 2.11094 6.97656L0.317188 8.76562C0.114063 8.96875 0 9.24219 0 9.52969C0 9.81875 0.1125 10.0891 0.317188 10.2937L1.97969 11.9563C2.32656 12.3031 2.80469 12.5016 3.29531 12.5016C3.39687 12.5016 3.49531 12.4938 3.59531 12.4766C5.66406 12.1359 7.71719 11.0344 9.375 9.37813C11.0312 7.71875 12.1313 5.66563 12.475 3.59531C12.5734 3.00781 12.3766 2.40312 11.9547 1.97969V1.97969ZM11.3672 3.40938C11.0625 5.25156 10.0719 7.08906 8.57969 8.58125C7.0875 10.0734 5.25156 11.0641 3.40938 11.3687C3.17813 11.4078 2.94062 11.3297 2.77187 11.1625L1.13906 9.52969L2.87031 7.79688L4.74219 9.67188L4.75625 9.68594L5.09375 9.56094C6.11707 9.1847 7.04635 8.59044 7.81717 7.81934C8.588 7.04825 9.18193 6.11877 9.55781 5.09531L9.68281 4.75781L7.79531 2.87187L9.52656 1.13906L11.1594 2.77187C11.3281 2.94062 11.4062 3.17813 11.3672 3.40938Z" fill="#828282"/>
</svg>

<svg width="13" height="13" fill="none" xmlns="http://www.w3.org/2000/svg"><path d="M11.955 1.98L10.29.317a1.075 1.075 0 00-1.525 0l-1.793 1.79a1.078 1.078 0 000 1.527l1.4 1.402a6.335 6.335 0 01-1.35 1.989 6.347 6.347 0 01-1.987 1.353l-1.4-1.401a1.075 1.075 0 00-1.525 0L.317 8.766a1.078 1.078 0 000 1.528l1.663 1.662a1.871 1.871 0 001.615.52c2.07-.34 4.122-1.442 5.78-3.098 1.656-1.66 2.756-3.712 3.1-5.783a1.863 1.863 0 00-.52-1.615zm-.588 1.43c-.305 1.842-1.295 3.68-2.787 5.171-1.492 1.492-3.328 2.483-5.17 2.788a.735.735 0 01-.638-.207L1.139 9.53 2.87 7.797l1.872 1.875.014.014.338-.125a7.52 7.52 0 004.464-4.466l.125-.337-1.888-1.886 1.732-1.733 1.632 1.633a.732.732 0 01.208.637z" fill="#828282"/></svg>
